X: 14
T: Pollonesse #14
M: 3/4
L: 1/8
K: D
Q:120
dA df ef|cd eg fe|dc de fg| ac d2 D2:|
fa fa gf|eg ea fe|fa fa gf|eg ea fe|
dc df ed|cd eg fe|dc de fg|ac d2D2:|

